usr/share/icons/biglinux-icons-material/scalable/apps/fsearch.svg

<?xml version="1.0" encoding="UTF-8" standalone="no"?>
<svg
   width="24"
   height="24"
   viewBox="0 0 24 24"
   fill="none"
   version="1.1"
   id="svg154"
   sodipodi:docname="app.svg"
   inkscape:version="1.2.2 (b0a8486541, 2022-12-01)"
   xml:space="preserve"
   inkscape:export-filename="../../../../svg/icons que não tem no pacote/fsearch.svg"
   inkscape:export-xdpi="96"
   inkscape:export-ydpi="96"
   xmlns:inkscape="http://www.inkscape.org/namespaces/inkscape"
   xmlns:sodipodi="http://sodipodi.sourceforge.net/DTD/sodipodi-0.dtd"
   xmlns:xlink="http://www.w3.org/1999/xlink"
   xmlns="http://www.w3.org/2000/svg"
   xmlns:svg="http://www.w3.org/2000/svg"
   xmlns:sketch="http://www.bohemiancoding.com/sketch/ns"><sodipodi:namedview
     id="namedview156"
     pagecolor="#ffffff"
     bordercolor="#000000"
     borderopacity="1"
     inkscape:showpageshadow="0"
     inkscape:pageopacity="1"
     inkscape:pagecheckerboard="false"
     inkscape:deskcolor="#ffffff"
     showgrid="true"
     inkscape:zoom="32"
     inkscape:cx="9.609375"
     inkscape:cy="15.453125"
     inkscape:window-width="1920"
     inkscape:window-height="1052"
     inkscape:window-x="0"
     inkscape:window-y="0"
     inkscape:window-maximized="1"
     inkscape:current-layer="svg154"
     showguides="true"
     guidecolor="#ff0000"
     guideopacity="1"
     inkscape:lockguides="true"
     showborder="true"
     borderlayer="true"><inkscape:grid
       type="xygrid"
       id="grid356"
       color="#000000"
       opacity="0.10196078"
       empcolor="#000000"
       empopacity="0.10196078"
       snapvisiblegridlinesonly="true"
       enabled="true"
       visible="true"
       dotted="false" /><sodipodi:guide
       position="4,12"
       orientation="-1,0"
       id="guide764"
       inkscape:locked="true"
       inkscape:label="left-circle"
       inkscape:color="rgb(255,0,0)" /><sodipodi:guide
       position="5,12"
       orientation="-1,0"
       id="guide2218"
       inkscape:locked="true"
       inkscape:label="left-square"
       inkscape:color="rgb(255,0,0)" /><sodipodi:guide
       position="12,20"
       orientation="0,1"
       id="guide2220"
       inkscape:locked="true"
       inkscape:label="top-circle"
       inkscape:color="rgb(255,0,0)" /><sodipodi:guide
       position="12,5"
       orientation="0,1"
       id="guide2222"
       inkscape:locked="true"
       inkscape:label="bottom-square"
       inkscape:color="rgb(255,0,0)" /><sodipodi:guide
       position="12,4"
       orientation="0,1"
       id="guide2224"
       inkscape:locked="true"
       inkscape:label="bottom-circle"
       inkscape:color="rgb(255,0,0)" /><sodipodi:guide
       position="19,12"
       orientation="-1,0"
       id="guide2226"
       inkscape:locked="true"
       inkscape:label="right-square"
       inkscape:color="rgb(255,0,0)" /><sodipodi:guide
       position="20,12"
       orientation="-1,0"
       id="guide2228"
       inkscape:locked="true"
       inkscape:label="right-circle"
       inkscape:color="rgb(255,0,0)" /><sodipodi:guide
       position="12,19"
       orientation="0,1"
       id="guide2230"
       inkscape:locked="true"
       inkscape:label="top-square"
       inkscape:color="rgb(255,0,0)" /><sodipodi:guide
       position="12,12"
       orientation="1,0"
       id="guide765"
       inkscape:locked="true" /><sodipodi:guide
       position="12,12"
       orientation="0,-1"
       id="guide767"
       inkscape:locked="true" /><sodipodi:guide
       position="12,12"
       orientation="0.70710678,0.70710678"
       id="guide2266"
       inkscape:locked="true"
       inkscape:label=""
       inkscape:color="rgb(255,0,0)" /><sodipodi:guide
       position="12,12"
       orientation="-0.70710678,0.70710678"
       id="guide2994"
       inkscape:locked="true"
       inkscape:label=""
       inkscape:color="rgb(255,0,0)" /><sodipodi:guide
       position="3,12"
       orientation="-1,0"
       id="guide131543"
       inkscape:locked="true"
       inkscape:label="left-horizontal"
       inkscape:color="rgb(255,0,0)" /><sodipodi:guide
       position="12,21"
       orientation="0,1"
       id="guide131545"
       inkscape:locked="true"
       inkscape:label="top-vertical"
       inkscape:color="rgb(255,0,0)" /><sodipodi:guide
       position="21,12"
       orientation="-1,0"
       id="guide131547"
       inkscape:locked="true"
       inkscape:label="right-horizontal"
       inkscape:color="rgb(255,0,0)" /><sodipodi:guide
       position="12,3"
       orientation="0,1"
       id="guide131549"
       inkscape:locked="true"
       inkscape:label="bottom-vertical"
       inkscape:color="rgb(255,0,0)" /></sodipodi:namedview><defs
     id="defs152"><linearGradient
       inkscape:collect="always"
       id="linearGradient1508"><stop
         style="stop-color:#333333;stop-opacity:1"
         offset="0"
         id="stop1504" /><stop
         style="stop-color:#f2f2f2;stop-opacity:1"
         offset="1"
         id="stop1506" /></linearGradient><linearGradient
       id="linearGradient1041"
       inkscape:swatch="solid"><stop
         style="stop-color:#ffffff;stop-opacity:1;"
         offset="0"
         id="stop1039" /></linearGradient><linearGradient
       inkscape:collect="always"
       xlink:href="#linearGradient1041"
       id="linearGradient1043"
       x1="5.4782305"
       y1="12"
       x2="18.521769"
       y2="12"
       gradientUnits="userSpaceOnUse"
       gradientTransform="matrix(1.4797466,0,0,1.4797466,-2.8082195,-5.7540565)" /><linearGradient
       inkscape:collect="always"
       xlink:href="#linearGradient1508"
       id="linearGradient1510"
       x1="51.350716"
       y1="98.176453"
       x2="51.350716"
       y2="-14.639223"
       gradientUnits="userSpaceOnUse"
       gradientTransform="matrix(0.24444444,0,0,0.24444444,-0.22222222,-0.22222222)" /></defs><path
     d="M 12,0.99999998 C 2,0.99999998 0.99999998,6 0.99999998,12 0.99999998,20 4.0000001,23 12,23 20,23 23,20 23,12 23,6 22,0.99999998 12,0.99999998 Z"
     sketch:type="MSShapeGroup"
     id="path6"
     style="font-variation-settings:normal;display:inline;opacity:1;vector-effect:none;fill:url(#linearGradient1510);fill-opacity:1;stroke-width:1.11627;stroke-linecap:butt;stroke-linejoin:miter;stroke-miterlimit:4;stroke-dasharray:none;stroke-dashoffset:0;stroke-opacity:1;-inkscape-stroke:none;stop-color:#000000;stop-opacity:1"
     sodipodi:nodetypes="sssss"
     inkscape:label="Shape"
     sodipodi:insensitive="true" /><image
     x="8.6578465"
     y="-4.8591056"
     width="9.6179094"
     height="10.076647"
     image-rendering="optimizeQuality"
     preserveAspectRatio="none"
     xlink:href="data:image/png;base64,iVBORw0KGgoAAAANSUhEUgAAABUAAAAWCAYAAAAvg9c4AAAACXBIWXMAAA7DAAAOwwHHb6hkAAAA GXRFWHRTb2Z0d2FyZQB3d3cuaW5rc2NhcGUub3Jnm+48GgAAAMVJREFUOI2llOsOwyAIhY+2e//3 3VLdn5Idz8BbSYhWwidYIKGVRPuKTckdW+rYpqHJ2W+BvUgVuAxW6GOgB30MZKgCRt9dOchJdVui 9B+BvR/FGpXcNNQDbkV9BpHyZRVAGXCallaogb1nKeocXexBTSz9DOC619oBX7c20Ip/p0yrZ2d5 AfgAeGukBb9Uo7rtjcQTQNbJZOkepPYMwGQVaPocrZ1ltOU1lKjHLWKtVW/mDqF8zpBo8CxB1bY0 tWbbb6lNv5crG3xcbYlgAAAAAElFTkSuQmCC"
     id="image1418" /><g
     id="g1446"
     transform="matrix(0.5044044,0,0,0.5044044,6.1856208,7.6715138)"><g
       id="g1451"><g
         id="g1502"
         transform="matrix(0.93577285,-0.27445111,0.27445111,0.93577285,-1.1012359,3.0409421)"><path
           d="m 0.87315726,-4.8591054 c -1.52335489,0 -2.74896316,1.2256083 -2.74896316,2.7489632 V 16.209931 c 0,1.523355 1.22560827,2.747232 2.74896316,2.747232 H 15.528524 c 1.523355,0 2.748963,-1.225608 2.748963,-2.747232 V 2.4668468 l -7.329414,-7.3259522 z"
           fill="#3c8dd4"
           style="stroke-width:1.73109;paint-order:stroke fill markers"
           id="path1416" /><path
           d="m 18.277487,2.4703089 -7.327683,-7.3294143 v 4.58045121 c 0,1.52335489 1.225608,2.74896309 2.747232,2.74896309 z"
           fill="#ffffff"
           opacity="0.5"
           style="stroke-width:1.73109;paint-order:stroke fill markers"
           id="path1422" /></g></g><path
       d="m 12.87411,2.3523362 c -4.1681422,0 -7.5759368,3.4077946 -7.5759368,7.5759368 0,4.168144 3.4077946,7.575939 7.5759368,7.575939 a 7.52084,7.52084 0 0 0 4.286604,-1.343008 l 5.070368,5.071746 a 1.3774432,1.3774432 0 1 0 1.947705,-1.947705 l -5.070368,-5.071746 a 7.52084,7.52084 0 0 0 1.34163,-4.285226 c 0,-4.1681422 -3.407795,-7.5759368 -7.575939,-7.5759368 z m 0,1.721804 A 5.8541338,5.8541338 0 0 1 18.728244,9.928273 5.8541338,5.8541338 0 0 1 12.87411,15.782407 5.8541338,5.8541338 0 0 1 7.0199772,9.928273 5.8541338,5.8541338 0 0 1 12.87411,4.0741402 Z"
       fill="#666666"
       font-family="sans-serif"
       font-weight="400"
       overflow="visible"
       style="color:#000000;line-height:normal;font-variant-ligatures:normal;font-variant-position:normal;font-variant-caps:normal;font-variant-numeric:normal;font-variant-alternates:normal;font-feature-settings:normal;text-indent:0;text-align:start;text-decoration-line:none;text-decoration-style:solid;text-decoration-color:#000000;text-transform:none;text-orientation:mixed;shape-padding:0;isolation:auto;mix-blend-mode:normal;stroke:url(#linearGradient1043);stroke-width:0.785746;stroke-dasharray:none"
       white-space="normal"
       id="path6-3" /></g></svg>

<svg xmlns="http://www.w3.org/2000/svg" xmlns:xlink="http://www.w3.org/1999/xlink" xml:space="preserve" width="24" height="24" fill="none"><defs><linearGradient id="b"><stop offset="0" style="stop-color:#333;stop-opacity:1"/><stop offset="1" style="stop-color:#f2f2f2;stop-opacity:1"/></linearGradient><linearGradient id="a"><stop offset="0" style="stop-color:#fff;stop-opacity:1"/></linearGradient><linearGradient xlink:href="#a" id="d" x1="5.478" x2="18.522" y1="12" y2="12" gradientTransform="matrix(1.47975 0 0 1.47975 -2.808 -5.754)" gradientUnits="userSpaceOnUse"/><linearGradient xlink:href="#b" id="c" x1="51.351" x2="51.351" y1="98.176" y2="-14.639" gradientTransform="matrix(.24444 0 0 .24444 -.222 -.222)" gradientUnits="userSpaceOnUse"/></defs><path d="M12 1C2 1 1 6 1 12c0 8 3 11 11 11s11-3 11-11c0-6-1-11-11-11Z" style="font-variation-settings:normal;display:inline;opacity:1;vector-effect:none;fill:url(#c);fill-opacity:1;stroke-width:1.11627;stroke-linecap:butt;stroke-linejoin:miter;stroke-miterlimit:4;stroke-dasharray:none;stroke-dashoffset:0;stroke-opacity:1;-inkscape-stroke:none;stop-color:#000;stop-opacity:1"/><image xlink:href="data:image/png;base64,iVBORw0KGgoAAAANSUhEUgAAABUAAAAWCAYAAAAvg9c4AAAACXBIWXMAAA7DAAAOwwHHb6hkAAAA GXRFWHRTb2Z0d2FyZQB3d3cuaW5rc2NhcGUub3Jnm+48GgAAAMVJREFUOI2llOsOwyAIhY+2e//3 3VLdn5Idz8BbSYhWwidYIKGVRPuKTckdW+rYpqHJ2W+BvUgVuAxW6GOgB30MZKgCRt9dOchJdVui 9B+BvR/FGpXcNNQDbkV9BpHyZRVAGXCallaogb1nKeocXexBTSz9DOC619oBX7c20Ip/p0yrZ2d5 AfgAeGukBb9Uo7rtjcQTQNbJZOkepPYMwGQVaPocrZ1ltOU1lKjHLWKtVW/mDqF8zpBo8CxB1bY0 tWbbb6lNv5crG3xcbYlgAAAAAElFTkSuQmCC" width="9.618" height="10.077" x="8.658" y="-4.859" image-rendering="optimizeQuality" preserveAspectRatio="none"/><path fill="#3c8dd4" d="M.873-4.86a2.742 2.742 0 0 0-2.749 2.75v18.32a2.74 2.74 0 0 0 2.75 2.747h14.655a2.742 2.742 0 0 0 2.748-2.747V2.467L10.948-4.86z" style="stroke-width:1.73109;paint-order:stroke fill markers" transform="matrix(.472 -.13843 .13843 .472 5.63 9.205)"/><path fill="#fff" d="M18.277 2.47 10.95-4.86v4.581a2.742 2.742 0 0 0 2.747 2.75z" opacity=".5" style="stroke-width:1.73109;paint-order:stroke fill markers" transform="matrix(.472 -.13843 .13843 .472 5.63 9.205)"/><path fill="#666" d="M12.874 2.352c-4.168 0-7.576 3.408-7.576 7.576 0 4.168 3.408 7.576 7.576 7.576a7.52 7.52 0 0 0 4.287-1.343l5.07 5.072a1.377 1.377 0 1 0 1.948-1.948l-5.07-5.072a7.52 7.52 0 0 0 1.341-4.285c0-4.168-3.408-7.576-7.576-7.576zm0 1.722a5.854 5.854 0 0 1 5.854 5.854 5.854 5.854 0 0 1-5.854 5.854A5.854 5.854 0 0 1 7.02 9.928a5.854 5.854 0 0 1 5.854-5.854Z" font-family="sans-serif" font-weight="400" overflow="visible" style="color:#000;line-height:normal;font-variant-ligatures:normal;font-variant-position:normal;font-variant-caps:normal;font-variant-numeric:normal;font-variant-alternates:normal;font-feature-settings:normal;text-indent:0;text-align:start;text-decoration-line:none;text-decoration-style:solid;text-decoration-color:#000;text-transform:none;text-orientation:mixed;shape-padding:0;isolation:auto;mix-blend-mode:normal;stroke:url(#d);stroke-width:.785746;stroke-dasharray:none" transform="matrix(.5044 0 0 .5044 6.186 7.672)"/></svg>
